Suru++-Ubuntu/apps/scalable/codeblocks.svg

<svg width="256" height="256" version="1.1" viewBox="0 0 67.73 67.73" xmlns="http://www.w3.org/2000/svg" xmlns:xlink="http://www.w3.org/1999/xlink">
 <defs>
  <linearGradient id="linearGradient1108" x1="296" x2="296" y1="-212" y2="236" gradientUnits="userSpaceOnUse">
   <stop style="stop-color:#ffffff" offset="0"/>
   <stop style="stop-color:#ffffff;stop-opacity:.09803922" offset=".125"/>
   <stop style="stop-color:#000000;stop-opacity:.09803922" offset=".925"/>
   <stop style="stop-color:#000000;stop-opacity:.49803922" offset="1"/>
  </linearGradient>
  <clipPath id="clipPath1082-3-361">
   <path d="M 361.9375,-212 C 507.2348,-212 528,-191.28677 528,-46.125 V 70.125 C 528,215.28618 507.2348,236 361.9375,236 H 214.0625 C 68.7652,236 48,215.28618 48,70.125 V -46.125 C 48,-191.28677 68.7652,-212 214.0625,-212 Z" style="fill:#8c59d9"/>
  </clipPath>
  <filter id="filter4569" x="-.01" y="-.01" width="1.023" height="1.025" style="color-interpolation-filters:sRGB">
   <feGaussianBlur stdDeviation="1.16"/>
  </filter>
  <filter id="filter939" x="-.02" y="-.03" width="1.046" height="1.05" style="color-interpolation-filters:sRGB">
   <feGaussianBlur stdDeviation="2.32"/>
  </filter>
 </defs>
 <g transform="translate(0,-229.26666)">
  <path transform="matrix(.26970779 0 0 .26970779 -1.9098094e-8 231.46531)" d="m162.53675 5.5680001c72.64865 0 83.03125 10.356615 83.03125 82.937505v58.125005c0 72.58059-10.3826 82.9375-83.03125 82.9375h-73.937496c-72.648654 0-83.031254-10.35691-83.031254-82.9375v-58.125005c0-72.58089 10.3826-82.937505 83.031254-82.937505z" style="filter:url(#filter939);opacity:.2"/>
  <path d="m43.837429 232.42763c19.593907 0 22.394176 2.79326 22.394176 22.36889v15.67677c0 19.57555-2.800269 22.36889-22.394176 22.36889h-19.941519c-19.593909 0-22.394177-2.79334-22.394177-22.36889v-15.67677c0-19.57563 2.8002682-22.36889 22.394177-22.36889z" style="fill:none;opacity:.1;stroke-linecap:round;stroke-linejoin:round;stroke-width:1.0788311;stroke:#000000"/>
  <path transform="matrix(.26970779 0 0 .26970779 -1.9098094e-8 231.46531)" d="m162.53675 3.5680001c72.64865 0 83.03125 10.356615 83.03125 82.937505v58.125005c0 72.58059-10.3826 82.9375-83.03125 82.9375h-73.937496c-72.648654 0-83.031254-10.35691-83.031254-82.9375v-58.125005c0-72.58089 10.3826-82.937505 83.031254-82.937505z" style="filter:url(#filter4569);opacity:.1"/>
  <path transform="matrix(.26458333 0 0 .26458333 0 229.26666)" d="m65.416016 239.6875c-3.688371-0.21658-7.155058-0.50164-10.41211-0.86523-3.257052-0.3636-6.304691-0.80537-9.15625-1.3418 5.703153 1.0729 12.191599 1.77384 19.56836 2.20703z" style="fill:#ff0000"/>
  <path transform="matrix(.26458333 0 0 .26458333 0 229.26666)" d="m128 240.28516v-114.16797h-122.32422v29.625c0 55.48975 5.9529578 75.30087 40.171875 81.73828 2.851559 0.53643 5.899198 0.9782 9.15625 1.3418 3.257052 0.36359 6.723739 0.64865 10.41211 0.86523 7.376761 0.43319 15.641473 0.59766 24.898437 0.59766h37.685547z" style="fill:#f3ea4f"/>
  <path transform="matrix(.26458333 0 0 .26458333 0 229.26666)" d="m250.32422 126.11719h-122.32422v114.16797h37.68555c74.05571 0 84.63867-10.55664 84.63867-84.54297v-29.625z" style="fill:#4169e1"/>
  <path transform="matrix(.26458333 0 0 .26458333 0 229.26666)" d="m128 11.947266v114.16992h122.32422v-29.626956c0-73.986631-10.58296-84.542968-84.63867-84.542968h-37.68555z" style="fill:#32cd32"/>
  <path transform="matrix(.26458333 0 0 .26458333 0 229.26666)" d="m90.314453 11.947266c-74.055711 0-84.638672 10.556337-84.638672 84.542968v29.626956h122.32422v-114.16992h-37.685547z" style="fill:#ff0000"/>
  <path transform="matrix(.1348539 0 0 .1348539 -4.9712559 261.01666)" d="M 361.9375,-212 C 507.2348,-212 528,-191.28677 528,-46.125 V 70.125 C 528,215.28618 507.2348,236 361.9375,236 H 214.0625 C 68.7652,236 48,215.28618 48,70.125 V -46.125 C 48,-191.28677 68.7652,-212 214.0625,-212 Z" clip-path="url(#clipPath1082-3-361)" style="fill:none;opacity:.4;stroke-linecap:round;stroke-linejoin:round;stroke-width:8;stroke:url(#linearGradient1108)"/>
 </g>
</svg>

<svg xmlns="http://www.w3.org/2000/svg" xmlns:xlink="http://www.w3.org/1999/xlink" width="256" height="256" version="1.1" viewBox="0 0 67.73 67.73">
 <defs>
  <linearGradient id="linearGradient1108" x1="296" x2="296" y1="-212" y2="236" gradientUnits="userSpaceOnUse" xlink:href="#linearGradient1013"/>
  <linearGradient id="linearGradient1013">
   <stop style="stop-color:#ffffff" offset="0"/>
   <stop offset=".125" style="stop-color:#ffffff;stop-opacity:0.09803922"/>
   <stop offset=".925" style="stop-color:#000000;stop-opacity:0.09803922"/>
   <stop style="stop-color:#000000;stop-opacity:0.49803922" offset="1"/>
  </linearGradient>
  <clipPath id="clipPath1082-3-361" clipPathUnits="userSpaceOnUse">
   <path style="fill:#8c59d9" d="M 361.9375,-212 C 507.2348,-212 528,-191.28677 528,-46.125 V 70.125 C 528,215.28618 507.2348,236 361.9375,236 H 214.0625 C 68.7652,236 48,215.28618 48,70.125 V -46.125 C 48,-191.28677 68.7652,-212 214.0625,-212 Z"/>
  </clipPath>
  <filter id="filter4569" width="1.023" height="1.025" x="-.01" y="-.01" style="color-interpolation-filters:sRGB">
   <feGaussianBlur stdDeviation="1.16"/>
  </filter>
  <filter id="filter939" width="1.046" height="1.05" x="-.02" y="-.03" style="color-interpolation-filters:sRGB">
   <feGaussianBlur stdDeviation="2.32"/>
  </filter>
 </defs>
 <g transform="translate(0,-229.26666)">
  <path d="m 162.53675,5.5680001 c 72.64865,0 83.03125,10.3566149 83.03125,82.9375049 v 58.125005 c 0,72.58059 -10.3826,82.9375 -83.03125,82.9375 H 88.599254 C 15.9506,229.56801 5.568,219.2111 5.568,146.63051 V 88.505505 c 0,-72.58089 10.3826,-82.9375049 83.031254,-82.9375049 z" transform="matrix(0.26970779,0,0,0.26970779,-1.9098094e-8,231.46531)" style="opacity:0.2;filter:url(#filter939)"/>
  <path style="opacity:0.1;fill:none;stroke:#000000;stroke-width:1.07883108;stroke-linecap:round;stroke-linejoin:round" d="m 43.837429,232.42763 c 19.593907,0 22.394176,2.79326 22.394176,22.36889 v 15.67677 c 0,19.57555 -2.800269,22.36889 -22.394176,22.36889 H 23.89591 c -19.5939088,0 -22.394177,-2.79334 -22.394177,-22.36889 v -15.67677 c 0,-19.57563 2.8002682,-22.36889 22.394177,-22.36889 z"/>
  <path style="opacity:0.1;filter:url(#filter4569)" d="m 162.53675,3.5680001 c 72.64865,0 83.03125,10.3566149 83.03125,82.9375049 v 58.125005 c 0,72.58059 -10.3826,82.9375 -83.03125,82.9375 H 88.599254 C 15.9506,227.56801 5.568,217.2111 5.568,144.63051 V 86.505505 c 0,-72.58089 10.3826,-82.9375049 83.031254,-82.9375049 z" transform="matrix(0.26970779,0,0,0.26970779,-1.9098094e-8,231.46531)"/>
  <path d="M 65.416016 239.6875 C 61.727645 239.47092 58.260958 239.18586 55.003906 238.82227 C 51.746854 238.45867 48.699215 238.0169 45.847656 237.48047 C 51.550809 238.55337 58.039255 239.25431 65.416016 239.6875 z" transform="matrix(0.26458333,0,0,0.26458333,0,229.26666)" style="fill:#ff0000"/>
  <path d="M 128 240.28516 L 128 126.11719 L 5.6757812 126.11719 L 5.6757812 155.74219 C 5.6757812 211.23194 11.628739 231.04306 45.847656 237.48047 C 48.699215 238.0169 51.746854 238.45867 55.003906 238.82227 C 58.260958 239.18586 61.727645 239.47092 65.416016 239.6875 C 72.792777 240.12069 81.057489 240.28516 90.314453 240.28516 L 128 240.28516 z" transform="matrix(0.26458333,0,0,0.26458333,0,229.26666)" style="fill:#f3ea4f"/>
  <path d="M 250.32422 126.11719 L 128 126.11719 L 128 240.28516 L 165.68555 240.28516 C 239.74126 240.28516 250.32422 229.72852 250.32422 155.74219 L 250.32422 126.11719 z" transform="matrix(0.26458333,0,0,0.26458333,0,229.26666)" style="fill:#4169e1"/>
  <path d="M 128 11.947266 L 128 126.11719 L 250.32422 126.11719 L 250.32422 96.490234 C 250.32422 22.503603 239.74126 11.947266 165.68555 11.947266 L 128 11.947266 z" transform="matrix(0.26458333,0,0,0.26458333,0,229.26666)" style="fill:#32cd32"/>
  <path d="M 90.314453 11.947266 C 16.258742 11.947266 5.6757812 22.503603 5.6757812 96.490234 L 5.6757812 126.11719 L 128 126.11719 L 128 11.947266 L 90.314453 11.947266 z" transform="matrix(0.26458333,0,0,0.26458333,0,229.26666)" style="fill:#ff0000"/>
  <path style="opacity:0.4;fill:none;stroke:url(#linearGradient1108);stroke-width:8;stroke-linecap:round;stroke-linejoin:round" d="M 361.9375,-212 C 507.2348,-212 528,-191.28677 528,-46.125 V 70.125 C 528,215.28618 507.2348,236 361.9375,236 H 214.0625 C 68.7652,236 48,215.28618 48,70.125 V -46.125 C 48,-191.28677 68.7652,-212 214.0625,-212 Z" clip-path="url(#clipPath1082-3-361)" transform="matrix(0.1348539,0,0,0.1348539,-4.9712559,261.01666)"/>
 </g>
</svg>
